app/dist/common/images/hub-group.svg

<svg height="18" width="18" xmlns="http://www.w3.org/2000/svg"><path d="m0 0h18v18h-18z" fill="#d5503f"/><path d="m9 3-5 3.019v5.987l5 2.994 5-2.994v-5.986z" fill="#fff"/><path d="m7.333 12h1v-2h1.334v2h1v-3h-3.334zm-1.333 0h1v-3h-1zm3.667-6v2h-1.334v-2h-1v3h3.334v-3zm-3.667 3h1v-3h-1zm5 0h1v-3h-1zm0 3h1v-3h-1z" fill="#d5503f"/></svg>

<!-- by TradingView --><svg width="18" height="18" xmlns="http://www.w3.org/2000/svg"><path fill="#D5503F" d="M0 0h18v18H0z"/><path d="M9 3L4 6.019v5.987L9 15l5-2.994V6.02L9 3z" fill="#fff"/><path d="M7.333 12h1v-2h1.334v2h1V9H7.333v3zM6 12h1V9H6v3zm3.667-6v2H8.333V6h-1v3h3.334V6h-1zM6 9h1V6H6v3zm5 0h1V6h-1v3zm0 3h1V9h-1v3z" fill="#D5503F"/></svg>
